lib/flags/m/IQ.svg

<svg xmlns="http://www.w3.org/2000/svg" fill="none" viewBox="0 0 20 15"><mask id="IQ_svg__a" width="20" height="15" x="0" y="0" mask-type="alpha" maskUnits="userSpaceOnUse"><path fill="#fff" d="M0 0H20V15H0z"/></mask><g mask="url(#IQ_svg__a)"><path fill="#F7FCFF" fill-rule="evenodd" d="M0 0V15H20V0H0Z" clip-rule="evenodd"/><mask id="IQ_svg__b" width="20" height="15" x="0" y="0" mask-type="alpha" maskUnits="userSpaceOnUse"><path fill="#fff" fill-rule="evenodd" d="M0 0V15H20V0H0Z" clip-rule="evenodd"/></mask><g fill-rule="evenodd" clip-rule="evenodd" mask="url(#IQ_svg__b)"><path fill="#BF2714" d="M0 0V5H20V0H0Z"/><path fill="#272727" d="M0 10V15H20V10H0Z"/><path fill="#009C4E" d="M3.33539 8.007C3.90389 8.82288 3.125 9.375 3.125 9.375C3.125 9.375 3.80593 9.375 4.06672 8.82852H9.64007V7.62488C9.64007 7.62488 9.5235 7.04687 9.02722 7.04687C8.53094 7.04687 8.41912 7.62488 8.41912 7.62488H6.45882L8.35551 5.95054L7.98674 5.625L5.88001 7.48476V7.87907H8.8707V7.64695C8.8707 7.64695 8.88749 7.51257 9.02722 7.51257C9.16695 7.51257 9.13294 7.64695 9.13294 7.64695V8.14274H5.36413V7.4648L4.95605 7.64695V8.14274C4.95605 8.14274 4.45626 8.007 4.14041 8.007C3.82457 8.007 3.80593 7.64695 3.80593 7.64695L3.33539 8.007ZM10.9041 8.05331L11.2098 8.81442H9.99353V5.75898L10.5065 5.92321V8.05331H10.9041ZM16.5694 8.05331L16.875 8.81442H15.6588V5.75898L16.1718 5.92321V8.05331H16.5694ZM15.0634 5.7906L14.7465 6.00509V8.05121H14.4237V6.41018L13.892 6.71675V8.05121H13.5351V7.12469L13.1309 7.38485V7.63638C13.1309 7.63638 12.3533 7.68998 12.3533 8.78927H15.0603L15.0634 5.7906ZM4.68236 9.35353C4.78014 9.35353 4.8594 9.28356 4.8594 9.19725C4.8594 9.11093 4.78014 9.04096 4.68236 9.04096C4.58459 9.04096 4.50533 9.11093 4.50533 9.19725C4.50533 9.28356 4.58459 9.35353 4.68236 9.35353ZM13.6966 6.02604C13.5591 6.20724 13.142 6.02604 13.142 6.02604L14.3248 5.889C14.2027 6.12749 13.6966 6.02604 13.6966 6.02604Z"/></g></g></svg>

<svg xmlns="http://www.w3.org/2000/svg" fill="none" viewBox="0 0 20 15"><mask id="IQ_svg__a" width="20" height="15" x="0" y="0" maskUnits="userSpaceOnUse"><path fill="#fff" d="M0 0h20v15H0z"/></mask><g mask="url(#IQ_svg__a)"><path fill="#F7FCFF" fill-rule="evenodd" d="M0 0v15h20V0H0z" clip-rule="evenodd"/><mask id="IQ_svg__b" width="20" height="15" x="0" y="0" maskUnits="userSpaceOnUse"><path fill="#fff" fill-rule="evenodd" d="M0 0v15h20V0H0z" clip-rule="evenodd"/></mask><g fill-rule="evenodd" clip-rule="evenodd" mask="url(#IQ_svg__b)"><path fill="#BF2714" d="M0 0v5h20V0H0z"/><path fill="#272727" d="M0 10v5h20v-5H0z"/><path fill="#009C4E" d="M3.335 8.007c.569.816-.21 1.368-.21 1.368s.68 0 .942-.546H9.64V7.625s-.117-.578-.613-.578-.608.578-.608.578H6.46L8.356 5.95l-.37-.326-2.106 1.86v.394h2.99v-.232s.017-.134.157-.134.106.134.106.134v.496H5.364v-.678l-.408.182v.496s-.5-.136-.816-.136c-.315 0-.334-.36-.334-.36l-.47.36zm7.57.046l.305.761H9.994V5.76l.513.164v2.13h.397zm5.664 0l.306.761h-1.216V5.76l.513.164v2.13h.397zm-1.506-2.262l-.317.214v2.046h-.322v-1.64l-.532.306V8.05h-.357v-.926l-.404.26v.251s-.778.054-.778 1.153h2.707l.003-2.998zM4.683 9.354c.097 0 .176-.07.176-.157 0-.086-.079-.156-.177-.156-.097 0-.177.07-.177.156 0 .087.08.157.177.157zm9.014-3.328c-.138.181-.555 0-.555 0l1.183-.137c-.122.238-.628.137-.628.137z"/></g></g></svg>
